X: 23891
T: Lobsters In The Pot
R: polka
M: 2/4
K: Eminor
EF|:GF GE|D2 B/c/d|eg fg|e2 AB|
cB cB|G2 EF|GF GE|1 E2 EF:|2 E2 eA||
K: Edor
|:eA eA|B/c/d gg|d2 dG|dG dG|
[1 A/B/c ff|c2 e^d|ed e^d|e2 ed:|
[2 A/B/c ff|c2 EF|GF GE|E2 EF||

